src/icons/svg/ArrowUpCaret.svg

<svg width="24" height="24" viewBox="0 0 24 24" fill="none" xmlns="http://www.w3.org/2000/svg">
<path d="M18.58 13.724C18.092 13.222 12.946 8.322 12.946 8.322C12.684 8.054 12.342 7.92 12 7.92C11.656 7.92 11.315 8.054 11.054 8.322C11.054 8.322 5.90802 13.223 5.41902 13.724C4.93102 14.226 4.89702 15.128 5.41902 15.663C5.94202 16.197 6.67102 16.24 7.31002 15.663L12 11.167L16.688 15.663C17.328 16.24 18.058 16.197 18.58 15.663C19.103 15.127 19.071 14.225 18.58 13.724Z" fill="#1C2125"/>
</svg>

<!-- Generated by IcoMoon.io -->
<svg version="1.1" xmlns="http://www.w3.org/2000/svg" width="24" height="24" viewBox="0 0 24 24">
<title>arrow-up-caret</title>
<path fill="#444" d="M18.58 13.724c-0.488-0.502-5.634-5.402-5.634-5.402-0.262-0.268-0.604-0.402-0.946-0.402-0.344 0-0.685 0.134-0.946 0.402 0 0-5.146 4.901-5.635 5.402-0.488 0.502-0.522 1.404 0 1.939 0.523 0.534 1.252 0.577 1.891 0l4.69-4.496 4.688 4.496c0.64 0.577 1.37 0.534 1.892 0 0.523-0.536 0.491-1.438 0-1.939z"></path>
</svg>
